remix/Finance/coupon-3-line.svg

<svg viewBox="0 0 24 24" fill="currentColor" xmlns="http://www.w3.org/2000/svg"><path d="M2.00488 3.99979C2.00488 3.4475 2.4526 2.99979 3.00488 2.99979H21.0049C21.5572 2.99979 22.0049 3.4475 22.0049 3.99979V9.49979C20.6242 9.49979 19.5049 10.6191 19.5049 11.9998C19.5049 13.3805 20.6242 14.4998 22.0049 14.4998V19.9998C22.0049 20.5521 21.5572 20.9998 21.0049 20.9998H3.00488C2.4526 20.9998 2.00488 20.5521 2.00488 19.9998V3.99979ZM8.09024 18.9998C8.29615 18.4172 8.85177 17.9998 9.50488 17.9998C10.158 17.9998 10.7136 18.4172 10.9195 18.9998H20.0049V16.032C18.5232 15.2957 17.5049 13.7666 17.5049 11.9998C17.5049 10.2329 18.5232 8.7039 20.0049 7.96755V4.99979H10.9195C10.7136 5.58238 10.158 5.99979 9.50488 5.99979C8.85177 5.99979 8.29615 5.58238 8.09024 4.99979H4.00488V18.9998H8.09024ZM9.50488 10.9998C8.67646 10.9998 8.00488 10.3282 8.00488 9.49979C8.00488 8.67136 8.67646 7.99979 9.50488 7.99979C10.3333 7.99979 11.0049 8.67136 11.0049 9.49979C11.0049 10.3282 10.3333 10.9998 9.50488 10.9998ZM9.50488 15.9998C8.67646 15.9998 8.00488 15.3282 8.00488 14.4998C8.00488 13.6714 8.67646 12.9998 9.50488 12.9998C10.3333 12.9998 11.0049 13.6714 11.0049 14.4998C11.0049 15.3282 10.3333 15.9998 9.50488 15.9998Z"/></svg>

<svg viewBox="0 0 24 24" xmlns="http://www.w3.org/2000/svg"><path fill="none" d="M0 0h24v24H0Z"/><path d="M2 4v0c0-.56.44-1 1-1h18v0c.55 0 1 .44 1 1v5.5 0c-1.39 0-2.5 1.11-2.5 2.5 0 1.38 1.11 2.5 2.5 2.5V20v0c0 .55-.45 1-1 1H3v0c-.56 0-1-.45-1-1V4Zm6.08 15v0c.27-.79 1.13-1.2 1.91-.92 .42.15.76.48.91.91h9.085v-2.968 0c-2.23-1.11-3.14-3.81-2.04-6.04 .43-.89 1.15-1.6 2.03-2.04V4.97H10.89v0c-.28.78-1.14 1.19-1.92.91 -.43-.16-.77-.49-.92-.92H3.96v14h4.08Zm1.41-8v0c-.83 0-1.5-.68-1.5-1.5 0-.83.67-1.5 1.5-1.5v0c.82 0 1.5.67 1.5 1.5 0 .82-.68 1.5-1.5 1.5Zm0 5v0c-.83 0-1.5-.68-1.5-1.5 0-.83.67-1.5 1.5-1.5v0c.82 0 1.5.67 1.5 1.5 0 .82-.68 1.5-1.5 1.5Z"/></svg>
